!!!OTL: Changnian shi
!!!ARE: Asia, China,ˇnan Zhejiang, Pucheng
!! III, 627
!!!SCT: C1620
!!!YEM: Copyright 1995, estate of Helmut Schaffrath.
**kern
*ICvox
*Ivox
!! Mixed meters:  2/4; 3/4
*M3/4
*k[f#]
*G:
{8a
4.a
=1
8g
4.dd
=2
8e
4.g
=3
2dd}
=4
{8a
4.a
=5
8g
4.e
=6
8a
4.e
=7
2d}
=8
{8e
8g
8a
8a
=9
8g
8a
8g
8e}
=10
{8e
8b
8a
8g
=11
8g
8e
8a
4.e
=12
2d}
==
!!!AGN: Xiaodiao, MengjiangnÅ diao. Changgong ku
!!!AMT: irregular
!!!AIN: vox
!!!EED: Helmut Schaffrath
!!!EEV: 1.0
*-
